images/continents/europe/leagues/eredivise/eredivise.svg

<svg xmlns="http://www.w3.org/2000/svg" width="400" height="400"><path d="M189.063 97.276c-10.373 1.842-19.932 5.893-28.081 11.9l-2.496 1.839 5.224 5.235c6.109 6.12 5.028 5.736 8.817 3.134 44.331-30.439 98.535 24.359 68.537 69.288l-1.956 2.93 5.423 5.443 5.422 5.444.81-.952c11.368-13.346 16.709-34.971 13.09-52.996-6.886-34.299-40.518-57.352-74.79-51.265m-40.63 24.259c-37.004 46.779 6.347 115.082 65.171 102.683 9.437-1.989 27.412-10.654 27.412-13.215 0-.149-2.343-2.61-5.206-5.467l-5.206-5.195-3.095 2.125c-23.534 16.16-55.514 8.709-70.174-16.35-9.469-16.185-8.876-37.357 1.476-52.767a484.914 484.914 0 0 0 1.944-2.907c.077-.121-2.29-2.647-5.261-5.613l-5.402-5.391-1.659 2.097m46.88 1.905c-32.101 4.382-45.013 42.212-22.015 64.495 12.833 12.433 32.293 14.378 47.542 4.752l1.533-.968-5.181-5.191-5.18-5.191-2.427 1.135c-23.291 10.899-43.951-20.025-25.632-38.367 12.264-12.28 33.203-6.949 38.106 9.704l.259.879h-18.581c-10.219 0-18.579.131-18.577.292.003.162 2.706 2.974 6.008 6.25l6.003 5.958h40.657l.28-2.608c2.54-23.718-18.968-44.393-42.795-41.14m-23.959 120.57c-.143.144-.26 4.893-.26 10.555v10.295l-1.551-.791c-13.403-6.838-29.022 3.031-29.046 18.353-.025 16.175 14.661 25.295 29.913 18.577.53-.234.684-.116.684.522 0 .8.161.823 5.859.823h5.86V243.75h-5.599c-3.08 0-5.717.117-5.86.26m116.838 18.337c-7.729 1.659-11.627 5.84-11.617 12.458.011 7.457 3.17 10.22 14.091 12.324 8.462 1.631 10.562 2.764 9.344 5.04-2.188 4.088-11.969 2.722-13.831-1.933l-.626-1.564H274.9l.249 1.558c1.365 8.535 6.998 12.846 17.234 13.189 12.253.411 19.13-4.323 19.13-13.168 0-7.339-3.656-10.325-15.039-12.283-5.844-1.005-7.774-1.801-8.353-3.447-1.68-4.776 9.65-5.314 12.009-.57l.716 1.44h10.551l-.265-1.661c-1.42-8.914-11.393-13.863-22.94-11.383m-250.653.562c-22.894 5.996-17.122 40.793 6.734 40.593 8.865-.074 19.008-6.725 19.008-12.462 0-.905-11.888-.525-12.731.406-3.317 3.665-11.422 2.547-14.291-1.972-.607-.955-1.103-1.878-1.103-2.05 0-.173 6.416-.315 14.258-.315h14.258l-.006-4.004c-.022-15.357-11.303-24.078-26.127-20.196m51.68-.219c-2.327.506-4.929 1.671-7.481 3.349l-1.269.835v-3.983H68.75v39.453H80.469V291.66c0-15.253.85-16.762 10.101-17.93l3.571-.45v-11.171l-1.27.031c-.698.018-2.341.265-3.652.55m20.559.226c-16.624 4.352-19.889 28.258-5.09 37.27 10.215 6.22 24.888 3.071 29.651-6.364 1.7-3.369 1.949-3.197-4.612-3.197h-5.82l-1.997 1.344c-4.97 3.344-12.275 1.212-14.313-4.176-.243-.643.584-.684 14.041-.684h14.3l-.007-3.808c-.028-15.568-11.223-24.294-26.153-20.385m241.5-.245c-12.69 3.075-18.809 17.635-12.701 30.223 6.434 13.259 30.195 13.989 36.606 1.125 1.73-3.473 1.842-3.394-4.817-3.394h-5.805l-1.474 1.171c-3.909 3.107-10.481 2.122-13.481-2.019-2.039-2.815-2.747-2.668 12.852-2.668 16.015 0 14.497.423 14.492-4.035-.016-15.012-11.209-23.908-25.672-20.403m-159.481 19.946v19.727H203.516v-39.453H191.797v19.726m15.983-18.847c.32.83 2.292 5.412 12.355 28.71l4.26 9.864 5.283-.002 5.283-.002 8.363-19.432c4.599-10.687 8.433-19.563 8.519-19.724.086-.162-2.671-.293-6.126-.293h-6.283l-.395 1.039c-2.23 5.863-9.117 22.398-9.33 22.398-.151 0-1.477-2.944-2.946-6.543a6001.905 6001.905 0 0 0-4.8-11.719l-2.13-5.175h-12.392l.339.879m48.861 18.847v19.727h11.718v-39.453h-11.718v19.726m62.109 0v19.727h11.328v-39.453H318.75v19.726m-270.249-9.605c1.675 1.147 2.963 2.958 3.299 4.639l.251 1.255H34.713l.266-.879c1.607-5.306 9.063-8.071 13.522-5.015m71.714-.308c1.865.903 3.448 2.933 3.849 4.939l.252 1.263h-17.295l.58-1.39c2.059-4.927 7.83-7.128 12.614-4.812m46.34.153c.787.329 2.13 1.23 2.985 2.002l1.554 1.404v12.7l-1.728 1.593c-6.632 6.113-17.109 1.388-17.147-7.734-.033-7.827 7.283-12.912 14.336-9.965m193.901-.377c1.931.806 3.167 1.996 4.04 3.887 1.229 2.664 1.615 2.539-7.855 2.539-5.689 0-8.594-.137-8.594-.406 0-4.394 7.543-8.054 12.409-6.02" fill="#042c64" fill-rule="evenodd"/></svg>

<svg id="svg" version="1.1" xmlns="http://www.w3.org/2000/svg" xmlns:xlink="http://www.w3.org/1999/xlink" width="400" height="400" viewBox="0, 0, 400,400"><g id="svgg"><path id="path0" d="M189.063 97.276 C 178.690 99.118,169.131 103.169,160.982 109.176 L 158.486 111.015 163.710 116.250 C 169.819 122.370,168.738 121.986,172.527 119.384 C 216.858 88.945,271.062 143.743,241.064 188.672 L 239.108 191.602 244.531 197.045 L 249.953 202.489 250.763 201.537 C 262.131 188.191,267.472 166.566,263.853 148.541 C 256.967 114.242,223.335 91.189,189.063 97.276 M148.433 121.535 C 111.429 168.314,154.780 236.617,213.604 224.218 C 223.041 222.229,241.016 213.564,241.016 211.003 C 241.016 210.854,238.673 208.393,235.810 205.536 L 230.604 200.341 227.509 202.466 C 203.975 218.626,171.995 211.175,157.335 186.116 C 147.866 169.931,148.459 148.759,158.811 133.349 C 159.803 131.872,160.678 130.564,160.755 130.442 C 160.832 130.321,158.465 127.795,155.494 124.829 L 150.092 119.438 148.433 121.535 M195.313 123.440 C 163.212 127.822,150.300 165.652,173.298 187.935 C 186.131 200.368,205.591 202.313,220.840 192.687 L 222.373 191.719 217.192 186.528 L 212.012 181.337 209.585 182.472 C 186.294 193.371,165.634 162.447,183.953 144.105 C 196.217 131.825,217.156 137.156,222.059 153.809 L 222.318 154.688 203.737 154.688 C 193.518 154.688,185.158 154.819,185.160 154.980 C 185.163 155.142,187.866 157.954,191.168 161.230 L 197.171 167.188 217.500 167.188 L 237.828 167.188 238.108 164.580 C 240.648 140.862,219.140 120.187,195.313 123.440 M171.354 244.010 C 171.211 244.154,171.094 248.903,171.094 254.565 L 171.094 264.860 169.543 264.069 C 156.140 257.231,140.521 267.100,140.497 282.422 C 140.472 298.597,155.158 307.717,170.410 300.999 C 170.940 300.765,171.094 300.883,171.094 301.521 C 171.094 302.321,171.255 302.344,176.953 302.344 L 182.813 302.344 182.813 273.047 L 182.813 243.750 177.214 243.750 C 174.134 243.750,171.497 243.867,171.354 244.010 M288.192 262.347 C 280.463 264.006,276.565 268.187,276.575 274.805 C 276.586 282.262,279.745 285.025,290.666 287.129 C 299.128 288.760,301.228 289.893,300.010 292.169 C 297.822 296.257,288.041 294.891,286.179 290.236 L 285.553 288.672 280.227 288.672 L 274.900 288.672 275.149 290.230 C 276.514 298.765,282.147 303.076,292.383 303.419 C 304.636 303.830,311.513 299.096,311.513 290.251 C 311.513 282.912,307.857 279.926,296.474 277.968 C 290.630 276.963,288.700 276.167,288.121 274.521 C 286.441 269.745,297.771 269.207,300.130 273.951 L 300.846 275.391 306.121 275.391 L 311.397 275.391 311.132 273.730 C 309.712 264.816,299.739 259.867,288.192 262.347 M37.539 262.909 C 14.645 268.905,20.417 303.702,44.273 303.502 C 53.138 303.428,63.281 296.777,63.281 291.040 C 63.281 290.135,51.393 290.515,50.550 291.446 C 47.233 295.111,39.128 293.993,36.259 289.474 C 35.652 288.519,35.156 287.596,35.156 287.424 C 35.156 287.251,41.572 287.109,49.414 287.109 L 63.672 287.109 63.666 283.105 C 63.644 267.748,52.363 259.027,37.539 262.909 M89.219 262.690 C 86.892 263.196,84.290 264.361,81.738 266.039 L 80.469 266.874 80.469 264.882 L 80.469 262.891 74.609 262.891 L 68.750 262.891 68.750 282.617 L 68.750 302.344 74.609 302.344 L 80.469 302.344 80.469 291.660 C 80.469 276.407,81.319 274.898,90.570 273.730 L 94.141 273.280 94.141 267.695 L 94.141 262.109 92.871 262.140 C 92.173 262.158,90.530 262.405,89.219 262.690 M109.778 262.916 C 93.154 267.268,89.889 291.174,104.688 300.186 C 114.903 306.406,129.576 303.257,134.339 293.822 C 136.039 290.453,136.288 290.625,129.727 290.625 L 123.907 290.625 121.910 291.969 C 116.940 295.313,109.635 293.181,107.597 287.793 C 107.354 287.150,108.181 287.109,121.638 287.109 L 135.938 287.109 135.931 283.301 C 135.903 267.733,124.708 259.007,109.778 262.916 M351.278 262.671 C 338.588 265.746,332.469 280.306,338.577 292.894 C 345.011 306.153,368.772 306.883,375.183 294.019 C 376.913 290.546,377.025 290.625,370.366 290.625 L 364.561 290.625 363.087 291.796 C 359.178 294.903,352.606 293.918,349.606 289.777 C 347.567 286.962,346.859 287.109,362.458 287.109 C 378.473 287.109,376.955 287.532,376.950 283.074 C 376.934 268.062,365.741 259.166,351.278 262.671 M191.797 282.617 L 191.797 302.344 197.656 302.344 L 203.516 302.344 203.516 282.617 L 203.516 262.891 197.656 262.891 L 191.797 262.891 191.797 282.617 M207.780 263.770 C 208.100 264.600,210.072 269.182,220.135 292.480 L 224.395 302.344 229.678 302.342 L 234.961 302.340 243.324 282.908 C 247.923 272.221,251.757 263.345,251.843 263.184 C 251.929 263.022,249.172 262.891,245.717 262.891 L 239.434 262.891 239.039 263.930 C 236.809 269.793,229.922 286.328,229.709 286.328 C 229.558 286.328,228.232 283.384,226.763 279.785 C 225.294 276.187,223.134 270.913,221.963 268.066 L 219.833 262.891 213.637 262.891 L 207.441 262.891 207.780 263.770 M256.641 282.617 L 256.641 302.344 262.500 302.344 L 268.359 302.344 268.359 282.617 L 268.359 262.891 262.500 262.891 L 256.641 262.891 256.641 282.617 M318.750 282.617 L 318.750 302.344 324.414 302.344 L 330.078 302.344 330.078 282.617 L 330.078 262.891 324.414 262.891 L 318.750 262.891 318.750 282.617 M48.501 273.012 C 50.176 274.159,51.464 275.970,51.800 277.651 L 52.051 278.906 43.382 278.906 L 34.713 278.906 34.979 278.027 C 36.586 272.721,44.042 269.956,48.501 273.012 M120.215 272.704 C 122.080 273.607,123.663 275.637,124.064 277.643 L 124.316 278.906 115.669 278.906 L 107.021 278.906 107.601 277.516 C 109.660 272.589,115.431 270.388,120.215 272.704 M166.555 272.857 C 167.342 273.186,168.685 274.087,169.540 274.859 L 171.094 276.263 171.094 282.613 L 171.094 288.963 169.366 290.556 C 162.734 296.669,152.257 291.944,152.219 282.822 C 152.186 274.995,159.502 269.910,166.555 272.857 M360.456 272.480 C 362.387 273.286,363.623 274.476,364.496 276.367 C 365.725 279.031,366.111 278.906,356.641 278.906 C 350.952 278.906,348.047 278.769,348.047 278.500 C 348.047 274.106,355.590 270.446,360.456 272.480 " stroke="none" fill="#042c64" fill-rule="evenodd"></path><path id="path1" d="" stroke="none" fill="#082c64" fill-rule="evenodd"></path><path id="path2" d="" stroke="none" fill="#082c64" fill-rule="evenodd"></path><path id="path3" d="" stroke="none" fill="#082c64" fill-rule="evenodd"></path><path id="path4" d="" stroke="none" fill="#082c64" fill-rule="evenodd"></path></g></svg>
